X: 3361
T: John Anderson's Auldest Daughter
%R: air, march
B: Niel Gow & Sons "A Third Collection of Strathspey Reels, etc." v.3 p.36 #1
Z: 2022 John Chambers <jc:trillian.mit.edu>
M: 2/4
L: 1/8
Q: "Slow"
K: Am
% - - - - - - - - - -
V: 1 staves=2
!f!AB |\
{AB}c>A BG | TE2 G^F | G2 GE | A>BTc>d |\
e>Bc>A | !p!TE2 A^G | A2 A>A | [A2E2C2] :: !f!AB |\
{d}c>B cd | {cd}e2 Td>c |
!f!B[GB,][GB,]B | d2Tc>!p!d |\
e>B c>A | "_Cres."TE2 A^G | A2 AE | {E}Hc2 {d}(c/B/c/).d/ |\
!f!e>Bc>A | TE2 A^G | A2 A>A | [A2E2C2] :|
% - - - - - - - - - -
% Voice 2 preserves the staff layout in the book.
V: 2 clef=bass middle=d
!f!z2 | A2 e2 | c2 d2 | A2 g2 | {A}a2 z^G | A^GAB | !p!cdeE | AaAA | A2 :: !f!z2 | c'2 c2 |
zc'ba | !f!g2Gg | b2a!p!b | c'^gae | "_Cres."cd eE | Aa A2 | Hc2 z2 | !f!A^GAB | cd eE | AaAA | A2 :|


